;FLAVOR:UltiGCode
;TIME:6852
;MATERIAL:14274
;MATERIAL2:0
;NOZZLE_DIAMETER:0.4
;MINX:69.86
;MINY:88.06
;MINZ:0.27
;MAXX:153.14
;MAXY:134.94
;MAXZ:28.62
;Generated with Cura_SteamEngine 4.13.1
M82 ;absolute extrusion mode
G0 F3000 Y50 ;avoid prime blob
G92 E0
G92 E0
G10
;LAYER_COUNT:190
;LAYER:0
M107
G0 F4500 X72.858 Y90.334 Z0.27
;TYPE:SKIRT
G11
G1 F1800 X73.497 Y89.864 E0.07496
G1 X74.181 Y89.461 E0.14998
G1 X74.901 Y89.128 E0.22495
G1 X75.651 Y88.87 E0.2999
G1 X76.424 Y88.688 E0.37495
G1 X77.21 Y88.585 E0.44986
G1 X77.838 Y88.56 E0.50925
G1 X80.315 Y88.56 E0.74333
G1 X81.107 Y88.6 E0.81827
G1 X81.892 Y88.719 E0.8933
G1 X82.66 Y88.917 E0.96825
G1 X83.405 Y89.192 E1.04329
G1 X84.118 Y89.539 E1.11823
G1 X84.184 Y89.58 E1.12557
G1 X84.477 Y89.364 E1.15997
G1 X85.161 Y88.961 E1.23499
G1 X85.881 Y88.628 E1.30995
G1 X86.631 Y88.37 E1.38491
G1 X87.404 Y88.188 E1.45995
G1 X88.19 Y88.085 E1.53486
G1 X88.818 Y88.06 E1.59426
G1 X90.604 Y88.06 E1.76303
G1 X91.396 Y88.1 E1.83797
G1 X92.181 Y88.219 E1.913
G1 X92.949 Y88.417 E1.98795
G1 X93.694 Y88.692 E2.063
G1 X94.407 Y89.039 E2.13793
G1 X95.082 Y89.457 E2.21296
G1 X95.247 Y89.583 E2.23258
G1 X95.598 Y89.386 E2.27062
G1 X96.325 Y89.068 E2.3456
G1 X97.081 Y88.825 E2.42064
G1 X97.857 Y88.66 E2.49562
G1 X98.645 Y88.574 E2.57052
G1 X99.108 Y88.56 E2.6143
G1 X127.283 Y88.56 E5.27683
G1 X128.075 Y88.6 E5.35177
G1 X128.86 Y88.719 E5.4268
G1 X129.628 Y88.917 E5.50175
G1 X130.373 Y89.192 E5.5768
G1 X131.086 Y89.539 E5.65173
G1 X131.152 Y89.58 E5.65908
G1 X131.445 Y89.364 E5.69348
G1 X132.129 Y88.961 E5.7685
G1 X132.849 Y88.628 E5.84346
G1 X133.599 Y88.37 E5.91841
G1 X134.372 Y88.188 E5.99346
G1 X135.158 Y88.085 E6.06837
G1 X135.786 Y88.06 E6.12776
G1 X137.554 Y88.06 E6.29484
G1 X138.346 Y88.1 E6.36978
G1 X139.131 Y88.219 E6.44481
G1 X139.899 Y88.417 E6.51976
G1 X140.644 Y88.692 E6.59481
G1 X141.357 Y89.039 E6.66974
G1 X142.032 Y89.457 E6.74477
G1 X142.661 Y89.94 E6.81971
G1 X143.095 Y90.339 E6.87542
G1 X143.198 Y90.441 E6.88912
G1 X143.733 Y91.027 E6.96411
G1 X144.206 Y91.664 E7.03908
G1 X144.613 Y92.346 E7.11414
G1 X144.949 Y93.064 E7.18905
G1 X145.212 Y93.813 E7.26407
G1 X145.397 Y94.585 E7.33908
G1 X145.504 Y95.371 E7.41405
G1 X145.532 Y96.036 E7.47695
G1 X145.532 Y97.676 E7.63193
G1 X145.863 Y97.685 E7.66322
G1 X146.65 Y97.785 E7.73819
G1 X147.423 Y97.963 E7.81315
G1 X148.174 Y98.219 E7.88813
G1 X148.896 Y98.549 E7.96314
G1 X149.581 Y98.95 E8.03815
G1 X150.222 Y99.418 E8.11315
G1 X150.812 Y99.947 E8.18804
G1 X151.347 Y100.534 E8.26309
G1 X151.819 Y101.171 E8.33801
G1 X152.225 Y101.853 E8.41302
G1 X152.561 Y102.572 E8.48802
G1 X152.822 Y103.321 E8.56297
G1 X153.007 Y104.093 E8.63799
G1 X153.113 Y104.88 E8.71303
G1 X153.14 Y105.537 E8.77517
G1 X153.14 Y117.458 E9.90171
G1 X153.1 Y118.25 E9.97665
G1 X152.981 Y119.035 E10.05168
G1 X152.783 Y119.803 E10.12663
G1 X152.508 Y120.548 E10.20167
G1 X152.161 Y121.261 E10.27661
G1 X151.743 Y121.936 E10.35163
G1 X151.26 Y122.565 E10.42658
G1 X150.715 Y123.142 E10.50158
G1 X150.116 Y123.662 E10.57654
G1 X149.467 Y124.118 E10.6515
G1 X148.775 Y124.507 E10.72651
G1 X148.048 Y124.825 E10.8015
G1 X147.292 Y125.068 E10.87654
G1 X146.516 Y125.233 E10.95151
G1 X145.728 Y125.319 E11.02642
G1 X145.534 Y125.321 E11.04476
G1 X145.534 Y126.961 E11.19974
G1 X145.494 Y127.753 E11.27468
G1 X145.375 Y128.538 E11.34971
G1 X145.177 Y129.306 E11.42465
G1 X144.903 Y130.051 E11.49967
G1 X144.555 Y130.764 E11.57464
G1 X144.138 Y131.439 E11.64962
G1 X143.654 Y132.068 E11.72462
G1 X143.227 Y132.53 E11.78407
G1 X143.124 Y132.633 E11.79784
G1 X142.536 Y133.166 E11.87284
G1 X141.897 Y133.636 E11.9478
G1 X141.213 Y134.039 E12.02282
G1 X140.493 Y134.372 E12.09778
G1 X139.743 Y134.63 E12.17273
G1 X138.97 Y134.812 E12.24778
G1 X138.184 Y134.915 E12.32269
G1 X137.556 Y134.94 E12.38209
G1 X135.786 Y134.94 E12.54935
G1 X134.994 Y134.9 E12.62429
G1 X134.209 Y134.781 E12.69932
G1 X133.441 Y134.583 E12.77427
G1 X132.696 Y134.308 E12.84931
G1 X131.983 Y133.961 E12.92425
G1 X131.308 Y133.543 E12.99928
G1 X131.143 Y133.417 E13.0189
G1 X130.792 Y133.614 E13.05693
G1 X130.065 Y133.932 E13.13192
G1 X129.309 Y134.175 E13.20696
G1 X128.533 Y134.34 E13.28193
G1 X127.745 Y134.426 E13.35684
G1 X127.282 Y134.44 E13.40061
G1 X99.102 Y134.44 E16.06362
G1 X98.31 Y134.4 E16.13856
G1 X97.525 Y134.281 E16.21359
G1 X96.757 Y134.083 E16.28854
G1 X96.012 Y133.808 E16.36359
G1 X95.299 Y133.461 E16.43852
G1 X94.885 Y133.205 E16.48452
G1 X94.299 Y133.636 E16.55326
G1 X93.615 Y134.039 E16.62829
G1 X92.895 Y134.372 E16.70325
G1 X92.145 Y134.63 E16.7782
G1 X91.372 Y134.812 E16.85325
G1 X90.586 Y134.915 E16.92816
G1 X89.958 Y134.94 E16.98755
G1 X89.465 Y134.94 E17.03414
G1 X88.673 Y134.9 E17.10908
G1 X87.888 Y134.781 E17.18411
G1 X87.12 Y134.583 E17.25906
G1 X86.375 Y134.308 E17.33411
G1 X85.662 Y133.961 E17.40904
G1 X84.987 Y133.543 E17.48407
G1 X84.542 Y133.201 E17.53711
G1 X84.172 Y133.434 E17.57843
G1 X83.461 Y133.787 E17.65344
G1 X82.719 Y134.066 E17.72835
G1 X81.952 Y134.269 E17.80333
G1 X81.168 Y134.394 E17.87835
G1 X80.321 Y134.44 E17.95851
G1 X77.838 Y134.44 E18.19316
G1 X77.046 Y134.4 E18.2681
G1 X76.261 Y134.281 E18.34313
G1 X75.493 Y134.083 E18.41807
G1 X74.748 Y133.808 E18.49312
G1 X74.035 Y133.461 E18.56805
G1 X73.36 Y133.043 E18.64308
G1 X72.731 Y132.56 E18.71803
G1 X72.27 Y132.133 E18.77741
G1 X72.167 Y132.03 E18.79117
G1 X71.634 Y131.442 E18.86617
G1 X71.164 Y130.803 E18.94113
G1 X70.761 Y130.119 E19.01615
G1 X70.428 Y129.399 E19.09112
G1 X70.17 Y128.649 E19.16607
G1 X69.988 Y127.876 E19.24111
G1 X69.885 Y127.09 E19.31603
G1 X69.86 Y126.462 E19.37542
G1 X69.86 Y96.538 E22.20324
G1 X69.9 Y95.746 E22.27818
G1 X70.019 Y94.961 E22.35321
G1 X70.217 Y94.193 E22.42816
G1 X70.492 Y93.448 E22.5032
G1 X70.839 Y92.735 E22.57814
G1 X71.257 Y92.06 E22.65316
G1 X71.74 Y91.431 E22.72811
G1 X72.167 Y90.97 E22.78749
G1 X72.27 Y90.867 E22.80125
G1 X72.858 Y90.334 E22.87625
G0 F4500 X73.093 Y90.595
G1 F1800 X73.719 Y90.137 E22.94955
G1 X74.39 Y89.747 E23.02289
G1 X75.096 Y89.427 E23.09614
G1 X75.832 Y89.182 E23.16945
G1 X76.59 Y89.014 E23.24282
G1 X77.36 Y88.925 E23.31607
G1 X77.838 Y88.91 E23.36126
G1 X80.315 Y88.91 E23.59534
G1 X81.09 Y88.95 E23.66867
G1 X81.856 Y89.069 E23.74193
G1 X82.606 Y89.267 E23.81523
G1 X83.332 Y89.541 E23.88856
G1 X84.025 Y89.888 E23.9618
G1 X84.202 Y90.001 E23.98164
G1 X84.699 Y89.637 E24.03986
G1 X85.37 Y89.247 E24.1132
G1 X86.076 Y88.927 E24.18645
G1 X86.812 Y88.682 E24.25976
G1 X87.57 Y88.514 E24.33313
G1 X88.34 Y88.425 E24.40637
G1 X88.818 Y88.41 E24.45157
G1 X90.604 Y88.41 E24.62034
G1 X91.379 Y88.45 E24.69368
G1 X92.145 Y88.569 E24.76694
G1 X92.895 Y88.767 E24.84024
G1 X93.621 Y89.041 E24.91357
G1 X94.314 Y89.388 E24.98681
G1 X94.968 Y89.805 E25.06011
G1 X95.212 Y89.999 E25.08956
G1 X95.242 Y89.979 E25.09297
G1 X95.927 Y89.616 E25.16623
G1 X96.646 Y89.324 E25.23957
G1 X97.391 Y89.109 E25.31284
G1 X98.154 Y88.971 E25.38611
G1 X99.108 Y88.91 E25.47645
G1 X127.283 Y88.91 E28.13899
G1 X128.058 Y88.95 E28.21232
G1 X128.824 Y89.069 E28.28558
G1 X129.574 Y89.267 E28.35888
G1 X130.3 Y89.541 E28.43221
G1 X130.993 Y89.888 E28.50545
G1 X131.17 Y90.001 E28.5253
G1 X131.667 Y89.637 E28.58351
G1 X132.338 Y89.247 E28.65686
G1 X133.044 Y88.927 E28.73011
G1 X133.78 Y88.682 E28.80341
G1 X134.538 Y88.514 E28.87678
G1 X135.308 Y88.425 E28.95003
G1 X135.786 Y88.41 E28.99522
G1 X137.554 Y88.41 E29.1623
G1 X138.329 Y88.45 E29.23563
G1 X139.095 Y88.569 E29.30889
G1 X139.845 Y88.767 E29.38219
G1 X140.571 Y89.041 E29.45552
G1 X141.264 Y89.388 E29.52876
G1 X141.918 Y89.805 E29.60206
G1 X142.526 Y90.287 E29.67538
G1 X142.952 Y90.69 E29.7308
G1 X143.474 Y91.264 E29.80411
G1 X143.935 Y91.888 E29.87743
G1 X144.328 Y92.556 E29.95067
G1 X144.651 Y93.261 E30.02395
G1 X144.9 Y93.996 E30.09729
G1 X145.072 Y94.752 E30.17055
G1 X145.164 Y95.522 E30.24384
G1 X145.182 Y96.036 E30.29244
G1 X145.182 Y98.016 E30.47955
G1 X145.27 Y98.012 E30.48787
G1 X146.045 Y98.053 E30.56121
G1 X146.811 Y98.173 E30.63448
G1 X147.561 Y98.371 E30.70779
G1 X148.286 Y98.645 E30.78103
G1 X148.98 Y98.993 E30.8544
G1 X149.634 Y99.41 E30.92769
G1 X150.241 Y99.892 E31.00094
G1 X150.796 Y100.434 E31.07425
G1 X151.292 Y101.031 E31.1476
G1 X151.723 Y101.675 E31.22083
G1 X152.087 Y102.36 E31.29413
G1 X152.377 Y103.08 E31.36748
G1 X152.593 Y103.825 E31.44078
G1 X152.73 Y104.588 E31.51404
G1 X152.79 Y105.537 E31.6039
G1 X152.79 Y117.458 E32.73043
G1 X152.75 Y118.233 E32.80377
G1 X152.631 Y118.999 E32.87702
G1 X152.433 Y119.749 E32.95033
G1 X152.159 Y120.475 E33.02366
G1 X151.812 Y121.168 E33.0969
G1 X151.395 Y121.822 E33.17019
G1 X150.913 Y122.43 E33.24351
G1 X150.371 Y122.985 E33.31682
G1 X149.775 Y123.482 E33.39016
G1 X149.131 Y123.914 E33.46344
G1 X148.446 Y124.277 E33.5367
G1 X147.727 Y124.569 E33.61004
G1 X146.982 Y124.784 E33.68331
G1 X146.219 Y124.922 E33.75658
G1 X145.446 Y124.981 E33.82985
G1 X145.184 Y124.974 E33.85461
G1 X145.184 Y126.961 E34.04238
G1 X145.144 Y127.735 E34.11563
G1 X145.025 Y128.502 E34.18897
G1 X144.827 Y129.252 E34.26228
G1 X144.553 Y129.977 E34.33552
G1 X144.206 Y130.671 E34.40884
G1 X143.79 Y131.325 E34.48209
G1 X143.308 Y131.933 E34.55541
G1 X142.877 Y132.386 E34.6145
G1 X142.301 Y132.905 E34.68777
G1 X141.675 Y133.363 E34.76107
G1 X141.004 Y133.753 E34.83441
G1 X140.298 Y134.073 E34.90766
G1 X139.562 Y134.318 E34.98096
G1 X138.804 Y134.486 E35.05433
G1 X138.034 Y134.575 E35.12758
G1 X137.556 Y134.59 E35.17278
G1 X135.786 Y134.59 E35.34004
G1 X135.011 Y134.55 E35.41338
G1 X134.245 Y134.431 E35.48663
G1 X133.495 Y134.233 E35.55993
G1 X132.769 Y133.959 E35.63326
G1 X132.076 Y133.612 E35.7065
G1 X131.422 Y133.195 E35.7798
G1 X131.178 Y133.001 E35.80926
G1 X131.148 Y133.021 E35.81267
G1 X130.463 Y133.384 E35.88593
G1 X129.744 Y133.676 E35.95926
G1 X128.999 Y133.891 E36.03254
G1 X128.236 Y134.029 E36.10581
G1 X127.282 Y134.09 E36.19615
G1 X99.102 Y134.09 E38.85916
G1 X98.327 Y134.05 E38.93249
G1 X97.561 Y133.931 E39.00575
G1 X96.811 Y133.733 E39.07905
G1 X96.085 Y133.459 E39.15238
G1 X95.392 Y133.112 E39.22562
G1 X94.854 Y132.769 E39.28592
G1 X94.703 Y132.905 E39.30512
G1 X94.077 Y133.363 E39.37842
G1 X93.406 Y133.753 E39.45176
G1 X92.7 Y134.073 E39.52501
G1 X91.964 Y134.318 E39.59832
G1 X91.206 Y134.486 E39.67169
G1 X90.436 Y134.575 E39.74493
G1 X89.465 Y134.59 E39.83671
G1 X88.69 Y134.55 E39.91004
G1 X87.924 Y134.431 E39.9833
G1 X87.174 Y134.233 E40.0566
G1 X86.448 Y133.959 E40.12993
G1 X85.755 Y133.612 E40.20317
G1 X85.101 Y133.195 E40.27647
G1 X84.568 Y132.772 E40.34077
G1 X84.499 Y132.824 E40.34893
G1 X83.832 Y133.221 E40.42229
G1 X83.129 Y133.547 E40.49551
G1 X82.395 Y133.799 E40.56885
G1 X81.639 Y133.974 E40.64218
G1 X80.87 Y134.07 E40.71542
G1 X80.321 Y134.09 E40.76733
G1 X77.838 Y134.09 E41.00198
G1 X77.063 Y134.05 E41.07531
G1 X76.297 Y133.931 E41.14857
G1 X75.547 Y133.733 E41.22187
G1 X74.821 Y133.459 E41.2952
G1 X74.128 Y133.112 E41.36844
G1 X73.474 Y132.695 E41.44174
G1 X72.866 Y132.213 E41.51506
G1 X72.414 Y131.783 E41.57401
G1 X71.895 Y131.207 E41.64728
G1 X71.437 Y130.581 E41.72058
G1 X71.047 Y129.91 E41.79392
G1 X70.727 Y129.204 E41.86717
G1 X70.482 Y128.468 E41.94048
G1 X70.314 Y127.71 E42.01385
G1 X70.225 Y126.94 E42.0871
G1 X70.21 Y126.462 E42.13229
G1 X70.21 Y96.538 E44.96011
G1 X70.25 Y95.763 E45.03344
G1 X70.369 Y94.997 E45.1067
G1 X70.567 Y94.247 E45.18
G1 X70.841 Y93.521 E45.25333
G1 X71.188 Y92.828 E45.32657
G1 X71.605 Y92.174 E45.39987
G1 X72.087 Y91.566 E45.47319
G1 X72.517 Y91.114 E45.53214
G1 X73.093 Y90.595 E45.60541
G0 F4500 X73.328 Y90.855
G1 F1800 X73.941 Y90.411 E45.67694
G1 X74.598 Y90.033 E45.74857
G1 X75.29 Y89.727 E45.82007
G1 X76.012 Y89.496 E45.89171
G1 X76.753 Y89.342 E45.96323
G1 X77.838 Y89.26 E46.06605
G1 X80.315 Y89.26 E46.30013
G1 X81.071 Y89.3 E46.37167
G1 X81.819 Y89.419 E46.44325
G1 X82.55 Y89.617 E46.51481
G1 X83.257 Y89.891 E46.58647
G1 X83.93 Y90.237 E46.65798
G1 X84.224 Y90.43 E46.69121
G1 X84.308 Y90.355 E46.70186
G1 X84.921 Y89.911 E46.77338
G1 X85.578 Y89.533 E46.84501
G1 X86.27 Y89.227 E46.91651
G1 X86.992 Y88.996 E46.98815
G1 X87.733 Y88.842 E47.05967
G1 X88.818 Y88.76 E47.1625
G1 X90.604 Y88.76 E47.33127
G1 X91.36 Y88.8 E47.40281
G1 X92.108 Y88.919 E47.47439
G1 X92.839 Y89.117 E47.54596
G1 X93.546 Y89.391 E47.61761
G1 X94.219 Y89.737 E47.68912
G1 X94.852 Y90.153 E47.7607
G1 X95.186 Y90.438 E47.80219
G1 X95.576 Y90.19 E47.84587
G1 X96.254 Y89.852 E47.91746
G1 X96.963 Y89.588 E47.98896
G1 X97.697 Y89.4 E48.06056
G1 X98.446 Y89.291 E48.13208
G1 X99.108 Y89.26 E48.19471
G1 X127.283 Y89.26 E50.85725
G1 X128.039 Y89.3 E50.92879
G1 X128.787 Y89.419 E51.00037
G1 X129.518 Y89.617 E51.07194
G1 X130.225 Y89.891 E51.14359
G1 X130.898 Y90.237 E51.2151
G1 X131.192 Y90.43 E51.24833
G1 X131.276 Y90.355 E51.25898
G1 X131.889 Y89.911 E51.3305
G1 X132.546 Y89.533 E51.40213
G1 X133.238 Y89.227 E51.47363
G1 X133.96 Y88.996 E51.54527
G1 X134.701 Y88.842 E51.61679
G1 X135.786 Y88.76 E51.71962
G1 X137.554 Y88.76 E51.88669
G1 X138.31 Y88.8 E51.95823
G1 X139.058 Y88.919 E52.02981
G1 X139.789 Y89.117 E52.10138
G1 X140.496 Y89.391 E52.17303
G1 X141.169 Y89.737 E52.24454
G1 X141.802 Y90.153 E52.31612
G1 X142.603 Y90.837 E52.41566
G1 X142.706 Y90.939 E52.42936
G1 X143.215 Y91.499 E52.50087
G1 X143.662 Y92.111 E52.57249
G1 X144.043 Y92.765 E52.64402
G1 X144.352 Y93.457 E52.71563
G1 X144.587 Y94.177 E52.78721
G1 X144.744 Y94.918 E52.85878
G1 X144.832 Y96.036 E52.96476
G1 X144.832 Y98.381 E53.18637
G1 X145.466 Y98.365 E53.2463
G1 X146.221 Y98.426 E53.31788
G1 X146.965 Y98.566 E53.38942
G1 X147.691 Y98.784 E53.46105
G1 X148.389 Y99.078 E53.53263
G1 X149.052 Y99.443 E53.60415
G1 X149.674 Y99.876 E53.67577
G1 X150.246 Y100.372 E53.74731
G1 X150.762 Y100.926 E53.81886
G1 X151.218 Y101.531 E53.89045
G1 X151.607 Y102.181 E53.96203
G1 X151.925 Y102.868 E54.03357
G1 X152.169 Y103.585 E54.10515
G1 X152.337 Y104.324 E54.17676
G1 X152.425 Y105.076 E54.24831
G1 X152.44 Y105.537 E54.2919
G1 X152.44 Y117.458 E55.41843
G1 X152.4 Y118.214 E55.48998
G1 X152.281 Y118.962 E55.56155
G1 X152.083 Y119.693 E55.63312
G1 X151.809 Y120.4 E55.70477
G1 X151.463 Y121.073 E55.77628
G1 X151.047 Y121.706 E55.84786
G1 X150.567 Y122.292 E55.91945
G1 X150.028 Y122.824 E55.99101
G1 X149.436 Y123.296 E56.06256
G1 X148.797 Y123.703 E56.13416
G1 X148.119 Y124.041 E56.20575
G1 X147.41 Y124.305 E56.27724
G1 X146.676 Y124.493 E56.34885
G1 X145.927 Y124.602 E56.42037
G1 X145.17 Y124.632 E56.49196
G1 X144.834 Y124.61 E56.52378
G1 X144.834 Y126.961 E56.74595
G1 X144.794 Y127.717 E56.8175
G1 X144.675 Y128.465 E56.88907
G1 X144.477 Y129.196 E56.96064
G1 X144.204 Y129.902 E57.03217
G1 X143.857 Y130.576 E57.10381
G1 X143.442 Y131.209 E57.17534
G1 X142.732 Y132.035 E57.27827
G1 X142.629 Y132.138 E57.29203
G1 X142.066 Y132.645 E57.36363
G1 X141.453 Y133.089 E57.43516
G1 X140.796 Y133.467 E57.50679
G1 X140.104 Y133.773 E57.57829
G1 X139.382 Y134.004 E57.64992
G1 X138.641 Y134.158 E57.72145
G1 X137.556 Y134.24 E57.82427
G1 X135.786 Y134.24 E57.99153
G1 X135.03 Y134.2 E58.06308
G1 X134.282 Y134.081 E58.13465
G1 X133.551 Y133.883 E58.20622
G1 X132.844 Y133.609 E58.27787
G1 X132.171 Y133.263 E58.34939
G1 X131.538 Y132.847 E58.42097
G1 X131.204 Y132.562 E58.46246
G1 X130.814 Y132.81 E58.50613
G1 X130.136 Y133.148 E58.57772
G1 X129.427 Y133.412 E58.64922
G1 X128.693 Y133.6 E58.72082
G1 X127.944 Y133.709 E58.79235
G1 X127.282 Y133.74 E58.85497
G1 X99.102 Y133.74 E61.51798
G1 X98.346 Y133.7 E61.58953
G1 X97.598 Y133.581 E61.6611
G1 X96.867 Y133.383 E61.73267
G1 X96.16 Y133.109 E61.80432
G1 X95.487 Y132.763 E61.87583
G1 X94.845 Y132.34 E61.94849
G1 X94.468 Y132.645 E61.99431
G1 X93.855 Y133.089 E62.06584
G1 X93.198 Y133.467 E62.13747
G1 X92.506 Y133.773 E62.20897
G1 X91.784 Y134.004 E62.28061
G1 X91.043 Y134.158 E62.35213
G1 X89.958 Y134.24 E62.45495
G1 X89.465 Y134.24 E62.50154
G1 X88.709 Y134.2 E62.57309
G1 X87.961 Y134.081 E62.64466
G1 X87.23 Y133.883 E62.71623
G1 X86.523 Y133.609 E62.78788
G1 X85.85 Y133.263 E62.85939
G1 X85.217 Y132.847 E62.93097
G1 X84.833 Y132.519 E62.9787
G1 X84.563 Y132.341 E63.00926
