;FLAVOR:UltiGCode
;TIME:1077
;MATERIAL:2118
;MATERIAL2:0
;NOZZLE_DIAMETER:0.4
;MINX:96.097
;MINY:97.625
;MINZ:0.27
;MAXX:126.903
;MAXY:125.375
;MAXZ:16.02
;Generated with Cura_SteamEngine 4.13.1
M82 ;absolute extrusion mode
G0 F3000 Y50 ;avoid prime blob
G92 E0
G92 E0
G10
;LAYER_COUNT:106
;LAYER:0
M107
G0 F4500 X103.107 Y98.661 Z0.27
;TYPE:SKIRT
G11
G1 F1800 X103.542 Y98.314 E0.05258
G1 X104.022 Y98.034 E0.1051
G1 X104.538 Y97.825 E0.15771
G1 X105.078 Y97.692 E0.21026
G1 X105.675 Y97.636 E0.26693
G1 X106.428 Y97.625 E0.33809
G1 X116.622 Y97.625 E1.30143
G1 X117.323 Y97.635 E1.36768
G1 X117.878 Y97.683 E1.42032
G1 X118.419 Y97.81 E1.47283
G1 X118.937 Y98.013 E1.52541
G1 X119.421 Y98.288 E1.57802
G1 X119.86 Y98.63 E1.6306
G1 X120.246 Y99.031 E1.6832
G1 X120.596 Y99.525 E1.74042
G1 X120.995 Y100.195 E1.81411
G1 X126.091 Y109.024 E2.77745
G1 X126.42 Y109.614 E2.84129
G1 X126.656 Y110.118 E2.89388
G1 X126.817 Y110.651 E2.9465
G1 X126.899 Y111.201 E2.99905
G1 X126.903 Y111.757 E3.05159
G1 X126.826 Y112.308 E3.10417
G1 X126.671 Y112.843 E3.1568
G1 X126.416 Y113.397 E3.21444
G1 X126.051 Y114.046 E3.2848
G1 X120.981 Y122.829 E4.24315
G1 X120.598 Y123.472 E4.31388
G1 X120.28 Y123.928 E4.36641
G1 X119.899 Y124.334 E4.41903
G1 X119.465 Y124.682 E4.4716
G1 X118.985 Y124.963 E4.52416
G1 X118.47 Y125.173 E4.57672
G1 X117.93 Y125.307 E4.6293
G1 X117.326 Y125.364 E4.68663
G1 X116.572 Y125.375 E4.75789
G1 X106.378 Y125.375 E5.72122
G1 X105.677 Y125.365 E5.78747
G1 X105.122 Y125.317 E5.84012
G1 X104.581 Y125.19 E5.89263
G1 X104.063 Y124.987 E5.94521
G1 X103.579 Y124.712 E5.99781
G1 X103.14 Y124.37 E6.0504
G1 X102.754 Y123.969 E6.103
G1 X102.404 Y123.475 E6.16021
G1 X101.992 Y122.783 E6.23632
G1 X96.911 Y113.981 E7.19674
G1 X96.582 Y113.393 E7.26042
G1 X96.346 Y112.889 E7.31301
G1 X96.185 Y112.357 E7.36553
G1 X96.101 Y111.807 E7.41811
G1 X96.097 Y111.25 E7.47075
G1 X96.173 Y110.699 E7.52331
G1 X96.327 Y110.164 E7.57592
G1 X96.58 Y109.613 E7.63322
G1 X96.949 Y108.953 E7.70467
G1 X102.028 Y100.154 E8.66476
G1 X102.406 Y99.522 E8.73435
G1 X102.726 Y99.066 E8.787
G1 X103.107 Y98.661 E8.83954
G0 F4500 X103.38 Y98.885
G1 F1800 X103.801 Y98.562 E8.88969
G1 X104.266 Y98.305 E8.9399
G1 X104.763 Y98.122 E8.98994
G1 X105.283 Y98.015 E9.04011
G1 X105.681 Y97.986 E9.07782
G1 X106.434 Y97.975 E9.14899
G1 X116.617 Y97.975 E10.11128
G1 X117.318 Y97.985 E10.17754
G1 X117.847 Y98.033 E10.22773
G1 X118.362 Y98.159 E10.27783
G1 X118.853 Y98.361 E10.32801
G1 X119.308 Y98.635 E10.3782
G1 X119.716 Y98.974 E10.42833
G1 X120.069 Y99.37 E10.47846
G1 X120.295 Y99.704 E10.51657
G1 X120.692 Y100.37 E10.58984
G1 X125.786 Y109.194 E11.55268
G1 X126.115 Y109.784 E11.61652
G1 X126.338 Y110.266 E11.66671
G1 X126.486 Y110.775 E11.7168
G1 X126.555 Y111.301 E11.76693
G1 X126.545 Y111.832 E11.81712
G1 X126.456 Y112.355 E11.86725
G1 X126.289 Y112.859 E11.91743
G1 X126.11 Y113.225 E11.95593
G1 X125.748 Y113.871 E12.02591
G1 X120.68 Y122.65 E12.98384
G1 X120.297 Y123.293 E13.05457
G1 X119.992 Y123.727 E13.10469
G1 X119.626 Y124.111 E13.15483
G1 X119.205 Y124.435 E13.20503
G1 X118.741 Y124.692 E13.25515
G1 X118.244 Y124.877 E13.30527
G1 X117.724 Y124.984 E13.35544
G1 X117.32 Y125.014 E13.39372
G1 X116.566 Y125.025 E13.46498
G1 X106.383 Y125.025 E14.42727
G1 X105.682 Y125.015 E14.49352
G1 X105.153 Y124.967 E14.54372
G1 X104.638 Y124.841 E14.59382
G1 X104.147 Y124.639 E14.644
G1 X103.692 Y124.365 E14.69419
G1 X103.284 Y124.026 E14.74432
G1 X102.931 Y123.63 E14.79445
G1 X102.704 Y123.295 E14.83269
G1 X102.295 Y122.608 E14.90824
G1 X97.217 Y113.81 E15.8682
G1 X96.888 Y113.222 E15.93188
G1 X96.664 Y112.741 E15.98202
G1 X96.516 Y112.232 E16.03211
G1 X96.445 Y111.706 E16.08227
G1 X96.454 Y111.175 E16.13245
G1 X96.543 Y110.652 E16.18259
G1 X96.709 Y110.148 E16.23273
G1 X96.886 Y109.783 E16.27107
G1 X97.252 Y109.128 E16.34197
G1 X102.329 Y100.334 E17.30156
G1 X102.707 Y99.702 E17.37115
G1 X103.013 Y99.268 E17.42133
G1 X103.38 Y98.885 E17.47146
G0 F4500 X103.652 Y99.112
G1 F1800 X104.058 Y98.813 E17.51911
G1 X104.505 Y98.583 E17.56661
G1 X104.984 Y98.425 E17.61428
G1 X105.686 Y98.336 E17.68115
G1 X106.439 Y98.325 E17.75231
G1 X116.612 Y98.325 E18.71366
G1 X117.313 Y98.335 E18.77991
G1 X117.815 Y98.382 E18.82756
G1 X118.302 Y98.508 E18.8751
G1 X118.764 Y98.709 E18.92271
G1 X119.188 Y98.981 E18.97031
G1 X119.564 Y99.317 E19.01796
G1 X119.995 Y99.884 E19.08527
G1 X120.389 Y100.545 E19.15799
G1 X125.48 Y109.365 E20.12036
G1 X125.809 Y109.955 E20.1842
G1 X126.019 Y110.413 E20.23181
G1 X126.153 Y110.898 E20.27936
G1 X126.209 Y111.398 E20.32691
G1 X126.186 Y111.901 E20.37449
G1 X126.083 Y112.394 E20.42208
G1 X125.805 Y113.054 E20.48976
G1 X125.445 Y113.696 E20.55932
G1 X120.38 Y122.471 E21.51678
G1 X119.997 Y123.114 E21.58751
G1 X119.706 Y123.525 E21.6351
G1 X119.353 Y123.884 E21.68267
G1 X118.948 Y124.184 E21.7303
G1 X118.501 Y124.415 E21.77785
G1 X118.023 Y124.573 E21.82543
G1 X117.315 Y124.664 E21.89288
G1 X116.561 Y124.675 E21.96414
G1 X106.388 Y124.675 E22.92549
G1 X105.687 Y124.665 E22.99174
G1 X105.185 Y124.618 E23.03939
G1 X104.698 Y124.492 E23.08693
G1 X104.236 Y124.291 E23.13454
G1 X103.812 Y124.019 E23.18214
G1 X103.436 Y123.683 E23.22979
G1 X103.005 Y123.116 E23.2971
G1 X102.598 Y122.433 E23.37223
G1 X97.522 Y113.639 E24.33177
G1 X97.193 Y113.051 E24.39544
G1 X96.983 Y112.594 E24.44297
G1 X96.848 Y112.109 E24.49054
G1 X96.791 Y111.608 E24.53819
G1 X96.814 Y111.105 E24.58578
G1 X96.916 Y110.612 E24.63335
G1 X97.192 Y109.954 E24.70078
G1 X97.555 Y109.303 E24.77122
G1 X102.629 Y100.513 E25.73033
G1 X103.007 Y99.881 E25.79993
G1 X103.299 Y99.471 E25.84749
G1 X103.652 Y99.112 E25.89507
G10
;MESH:Knob1McKee (1) (2).stl
G0 F4500 X104.967 Y101.425
G0 X106.038 Y102.042
G0 X101.113 Y111.5
G0 X106.305 Y120.494
G0 X116.922 Y120.889
G11
G0 X116.972 Y120.975
;TYPE:WALL-INNER
G1 F1800 X106.028 Y120.975 E26.92928
G1 X100.559 Y111.5 E27.96312
G1 X106.028 Y102.025 E28.99696
G1 X116.972 Y102.025 E30.03116
G1 X122.441 Y111.5 E31.065
G1 X116.972 Y120.975 E32.09884
G0 F4500 X117.159 Y121.3
;TYPE:WALL-OUTER
G1 F1800 X105.841 Y121.3 E33.16839
G1 X100.184 Y111.5 E34.23771
G1 X105.841 Y101.7 E35.30703
G1 X117.159 Y101.7 E36.37658
G1 X122.816 Y111.5 E37.4459
G1 X117.159 Y121.3 E38.51522
G0 F4500 X116.959 Y121.3
G0 X116.776 Y120.635
;TYPE:SKIN
G1 F1800 X106.224 Y120.635 E39.48247
G1 X100.951 Y111.5 E40.44932
G1 X106.224 Y102.365 E41.41617
G1 X116.776 Y102.365 E42.38342
G1 X122.049 Y111.5 E43.35027
G1 X116.776 Y120.635 E44.31712
G0 F4500 X121.887 Y111.5
G0 X117.169 Y103.198
G0 X117.097 Y103.238
G1 F1800 X116.381 Y102.521 E44.41
G0 F4500 X115.886 Y102.521
G1 F1800 X117.774 Y104.409 E44.65475
G1 X117.836 Y104.471
G0 F4500 X117.888 Y104.443
G0 X118.521 Y105.54
G0 X118.45 Y105.58
G1 F1800 X115.391 Y102.521 E45.0513
G0 F4500 X114.896 Y102.521
G1 F1800 X119.126 Y106.751 E45.59965
G1 X119.188 Y106.813
G0 F4500 X119.24 Y106.785
G0 X119.874 Y107.883
G0 X119.802 Y107.923
G1 F1800 X114.401 Y102.521 E46.29987
G0 F4500 X113.906 Y102.521
G1 F1800 X120.478 Y109.094 E47.15189
G1 X120.54 Y109.156
G0 F4500 X120.592 Y109.127
G0 X121.226 Y110.225
G0 X121.154 Y110.265
G1 F1800 X113.411 Y102.521 E48.15571
G0 F4500 X112.916 Y102.521
G1 F1800 X121.831 Y111.437 E49.31146
G0 F4500 X121.696 Y111.797
G1 F1800 X112.421 Y102.521 E50.51388
G0 F4500 X111.926 Y102.521
G1 F1800 X121.515 Y112.111 E51.757
G0 F4500 X121.334 Y112.425
G1 F1800 X111.431 Y102.521 E53.04083
G0 F4500 X110.936 Y102.521
G1 F1800 X121.153 Y112.738 E54.3653
G0 F4500 X120.971 Y113.052
G1 F1800 X110.441 Y102.521 E55.73041
G0 F4500 X109.946 Y102.521
G1 F1800 X120.79 Y113.366 E57.13622
G0 F4500 X120.609 Y113.68
G1 F1800 X109.451 Y102.521 E58.58274
G0 F4500 X108.956 Y102.521
G1 F1800 X120.428 Y113.994 E60.06997
G0 F4500 X120.247 Y114.307
G1 F1800 X108.461 Y102.521 E61.59783
G0 F4500 X107.966 Y102.521
G1 F1800 X120.066 Y114.621 E63.1664
G0 F4500 X119.885 Y114.935
G1 F1800 X107.471 Y102.521 E64.77568
G0 F4500 X106.976 Y102.521
G1 F1800 X119.703 Y115.249 E66.42559
G0 F4500 X119.522 Y115.563
G1 F1800 X106.481 Y102.521 E68.11621
G0 F4500 X106.194 Y102.729
G1 F1800 X119.341 Y115.876 E69.82051
G0 F4500 X119.16 Y116.19
G1 F1800 X106.012 Y103.043 E71.52487
G0 F4500 X105.831 Y103.357
G1 F1800 X118.979 Y116.504 E73.22923
G0 F4500 X118.798 Y116.818
G1 F1800 X105.65 Y103.671 E74.9336
G0 F4500 X105.469 Y103.985
G1 F1800 X118.617 Y117.132 E76.63796
G0 F4500 X118.435 Y117.445
G1 F1800 X105.288 Y104.298 E78.34225
G0 F4500 X105.107 Y104.612
G1 F1800 X118.254 Y117.759 E80.04655
G0 F4500 X118.073 Y118.073
G1 F1800 X104.926 Y104.926 E81.75085
G0 F4500 X104.745 Y105.24
G1 F1800 X117.892 Y118.387 E83.45514
G0 F4500 X117.71 Y118.7
G1 F1800 X104.564 Y105.554 E85.15931
G0 F4500 X104.382 Y105.867
G1 F1800 X117.529 Y119.014 E86.86361
G0 F4500 X117.348 Y119.328
G1 F1800 X104.201 Y106.181 E88.5679
G0 F4500 X104.02 Y106.495
G1 F1800 X117.167 Y119.642 E90.2722
G0 F4500 X116.986 Y119.956
G1 F1800 X103.839 Y106.809 E91.9765
G0 F4500 X103.658 Y107.123
G1 F1800 X116.804 Y120.269 E93.68066
G0 F4500 X116.517 Y120.476
G1 F1800 X103.476 Y107.436 E95.37116
G0 F4500 X103.295 Y107.75
G1 F1800 X116.022 Y120.476 E97.02094
G0 F4500 X115.527 Y120.476
G1 F1800 X103.114 Y108.064 E98.63002
G0 F4500 X102.933 Y108.378
G1 F1800 X115.032 Y120.476 E100.1984
G0 F4500 X114.537 Y120.476
G1 F1800 X102.752 Y108.692 E101.72607
G0 F4500 X102.57 Y109.005
G1 F1800 X114.042 Y120.476 E103.21316
G0 F4500 X113.547 Y120.476
G1 F1800 X102.389 Y109.319 E104.65955
G0 F4500 X102.208 Y109.633
G1 F1800 X113.052 Y120.476 E106.06524
G0 F4500 X112.557 Y120.476
G1 F1800 X102.027 Y109.947 E107.43022
G0 F4500 X101.846 Y110.26
G1 F1800 X112.062 Y120.476 E108.75456
G0 F4500 X111.567 Y120.476
G1 F1800 X101.664 Y110.574 E110.03826
G0 F4500 X101.483 Y110.888
G1 F1800 X111.072 Y120.476 E111.28125
G0 F4500 X110.577 Y120.476
G1 F1800 X101.302 Y111.202 E112.48354
G0 F4500 X101.167 Y111.562
G1 F1800 X110.082 Y120.476 E113.63916
G0 F4500 X109.587 Y120.476
G1 F1800 X101.844 Y112.734 E114.64285
G1 X101.782 Y112.672
G0 F4500 X101.731 Y112.7
G0 X102.449 Y113.944
G0 X102.52 Y113.905
G1 F1800 X109.092 Y120.476 E115.49474
G0 F4500 X108.597 Y120.476
G1 F1800 X103.196 Y115.075 E116.19489
G1 X103.134 Y115.013
G0 F4500 X103.083 Y115.041
G0 X103.801 Y116.286
G0 X103.872 Y116.246
G1 F1800 X108.102 Y120.476 E116.74325
G0 F4500 X107.607 Y120.476
G1 F1800 X104.548 Y117.417 E117.1398
G1 X104.486 Y117.355
G0 F4500 X104.435 Y117.383
G0 X105.154 Y118.629
G0 X105.225 Y118.589
G1 F1800 X107.112 Y120.476 E117.38442
G0 F4500 X106.617 Y120.476
G1 F1800 X105.901 Y119.76 E117.47723
G1 X105.839 Y119.698
G0 F4500 X105.731 Y119.761
;MESH:NONMESH
G0 F600 X105.731 Y119.761 Z0.42
G0 F4500 X106.305 Y120.494
G0 X116.922 Y120.889
G0 X116.972 Y120.975
;TIME_ELAPSED:48.874298
;LAYER:1
M106 S255
;TYPE:WALL-INNER
;MESH:Knob1McKee (1) (2).stl
G1 F2400 X106.028 Y120.975 E118.05179
G1 X100.559 Y111.5 E118.62615
G1 X106.028 Y102.025 E119.2005
G1 X116.972 Y102.025 E119.77506
G1 X122.441 Y111.5 E120.34942
G1 X116.972 Y120.975 E120.92377
G0 F6750 X117.159 Y121.3
;TYPE:WALL-OUTER
G1 F2100 X105.841 Y121.3 E121.51797
G1 X100.184 Y111.5 E122.11203
G1 X105.841 Y101.7 E122.7061
G1 X117.159 Y101.7 E123.30029
G1 X122.816 Y111.5 E123.89436
G1 X117.159 Y121.3 E124.48843
G0 F6750 X116.959 Y121.3
G0 X116.776 Y120.635
;TYPE:SKIN
G1 F1800 X106.224 Y120.635 E125.02579
G1 X100.951 Y111.5 E125.56293
G1 X106.224 Y102.365 E126.10007
G1 X116.776 Y102.365 E126.63743
G1 X122.049 Y111.5 E127.17456
G1 X116.776 Y120.635 E127.7117
G0 F6750 X106.257 Y102.621
G1 F1800 X106.357 Y102.521 E127.71891
G0 F6750 X106.852 Y102.521
G1 F1800 X105.58 Y103.793 E127.81051
G1 X105.518 Y103.855
G0 F6750 X104.904 Y104.964
G1 F1800 X107.347 Y102.521 E127.98646
G0 F6750 X107.842 Y102.521
G1 F1800 X104.228 Y106.135 E128.24673
G1 X104.166 Y106.197
G0 F6750 X103.552 Y107.306
G1 F1800 X108.337 Y102.521 E128.59134
G0 F6750 X108.832 Y102.521
G1 F1800 X102.876 Y108.477 E129.02029
G1 X102.814 Y108.539
G0 F6750 X102.2 Y109.648
G1 F1800 X109.327 Y102.521 E129.53356
G0 F6750 X109.822 Y102.521
G1 F1800 X101.524 Y110.819 E130.13118
G1 X101.462 Y110.881
G0 F6750 X101.208 Y111.63
G1 F1800 X110.317 Y102.521 E130.7872
G0 F6750 X110.812 Y102.521
G1 F1800 X101.389 Y111.944 E131.46583
G0 F6750 X101.57 Y112.258
G1 F1800 X111.307 Y102.521 E132.16708
G0 F6750 X111.802 Y102.521
G1 F1800 X101.751 Y112.572 E132.89094
G0 F6750 X101.932 Y112.886
G1 F1800 X112.297 Y102.521 E133.63741
G0 F6750 X112.792 Y102.521
G1 F1800 X102.113 Y113.2 E134.4065
G0 F6750 X102.295 Y113.513
G1 F1800 X113.286 Y102.521 E135.1981
G0 F6750 X113.781 Y102.521
G1 F1800 X102.476 Y113.827 E136.01231
G0 F6750 X102.657 Y114.141
G1 F1800 X114.276 Y102.521 E136.84913
G0 F6750 X114.771 Y102.521
G1 F1800 X102.838 Y114.455 E137.70856
G0 F6750 X103.019 Y114.769
G1 F1800 X115.266 Y102.521 E138.59062
G0 F6750 X115.761 Y102.521
G1 F1800 X103.2 Y115.083 E139.49528
G0 F6750 X103.382 Y115.396
G1 F1800 X116.256 Y102.521 E140.42249
G0 F6750 X116.708 Y102.565
G1 F1800 X103.563 Y115.71 E141.36917
G0 F6750 X103.744 Y116.024
G1 F1800 X116.889 Y102.879 E142.31586
G0 F6750 X117.07 Y103.193
G1 F1800 X103.925 Y116.338 E143.26255
G0 F6750 X104.107 Y116.651
G1 F1800 X117.251 Y103.506 E144.2092
G0 F6750 X117.433 Y103.82
G1 F1800 X104.288 Y116.965 E145.15589
G0 F6750 X104.469 Y117.279
G1 F1800 X117.614 Y104.134 E146.10257
G0 F6750 X117.795 Y104.448
G1 F1800 X104.65 Y117.593 E147.04926
G0 F6750 X104.831 Y117.907
G1 F1800 X117.976 Y104.762 E147.99595
G0 F6750 X118.157 Y105.076
G1 F1800 X105.013 Y118.22 E148.94257
G0 F6750 X105.194 Y118.534
G1 F1800 X118.339 Y105.389 E149.88925
G0 F6750 X118.52 Y105.703
G1 F1800 X105.375 Y118.848 E150.83594
G0 F6750 X105.556 Y119.162
G1 F1800 X118.701 Y106.017 E151.78263
G0 F6750 X118.882 Y106.331
G1 F1800 X105.737 Y119.475 E152.72928
G0 F6750 X105.918 Y119.789
G1 F1800 X119.064 Y106.644 E153.676
G0 F6750 X119.245 Y106.958
G1 F1800 X106.099 Y120.103 E154.62273
G0 F6750 X106.28 Y120.417
G1 F1800 X119.426 Y107.272 E155.56945
G0 F6750 X119.607 Y107.586
G1 F1800 X106.715 Y120.477 E156.49788
G0 F6750 X107.21 Y120.477
G1 F1800 X119.788 Y107.9 E157.4037
G0 F6750 X119.969 Y108.213
G1 F1800 X107.705 Y120.477 E158.28694
G0 F6750 X108.2 Y120.477
G1 F1800 X120.15 Y108.527 E159.14756
G0 F6750 X120.331 Y108.841
G1 F1800 X108.695 Y120.477 E159.98557
G0 F6750 X109.19 Y120.477
G1 F1800 X120.512 Y109.155 E160.80097
G0 F6750 X120.694 Y109.468
G1 F1800 X109.685 Y120.477 E161.59382
G0 F6750 X110.18 Y120.477
G1 F1800 X120.875 Y109.782 E162.36407
G0 F6750 X121.056 Y110.096
G1 F1800 X110.675 Y120.477 E163.11169
G0 F6750 X111.17 Y120.477
G1 F1800 X121.237 Y110.41 E163.83671
G0 F6750 X121.419 Y110.723
G1 F1800 X111.665 Y120.477 E164.53918
G0 F6750 X112.16 Y120.477
G1 F1800 X121.6 Y111.037 E165.21904
G0 F6750 X121.781 Y111.351
G1 F1800 X112.655 Y120.477 E165.87628
G0 F6750 X113.15 Y120.477
G1 F1800 X121.512 Y112.116 E166.47847
G1 X121.574 Y112.054
G0 F6750 X120.836 Y113.286
G1 F1800 X113.645 Y120.477 E166.99635
G0 F6750 X114.14 Y120.477
G1 F1800 X120.159 Y114.458 E167.42983
G1 X120.221 Y114.396
G0 F6750 X119.483 Y115.629
G1 F1800 X114.635 Y120.477 E167.77898
G0 F6750 X115.13 Y120.477
G1 F1800 X118.807 Y116.8 E168.04379
G1 X118.869 Y116.738
G0 F6750 X118.131 Y117.971
G1 F1800 X115.625 Y120.477 E168.22427
G0 F6750 X116.12 Y120.477
G1 F1800 X117.455 Y119.142 E168.32042
G1 X117.517 Y119.08
G0 F6750 X116.778 Y120.314
G1 F1800 X116.615 Y120.477 E168.33216
;MESH:NONMESH
G0 F600 X116.615 Y120.477 Z0.57
G0 F6750 X116.972 Y120.975
;TIME_ELAPSED:82.910468
;LAYER:2
;TYPE:WALL-INNER
;MESH:Knob1McKee (1) (2).stl
G1 F3000 X106.028 Y120.975 E168.90672
G1 X100.559 Y111.5 E169.48107
G1 X106.028 Y102.025 E170.05543
G1 X116.972 Y102.025 E170.62999
G1 X122.441 Y111.5 E171.20434
G1 X116.972 Y120.975 E171.7787
G0 F9000 X117.159 Y121.3
;TYPE:WALL-OUTER
G1 F2400 X105.841 Y121.3 E172.37289
G1 X100.184 Y111.5 E172.96696
G1 X105.841 Y101.7 E173.56102
G1 X117.159 Y101.7 E174.15522
G1 X122.816 Y111.5 E174.74929
G1 X117.159 Y121.3 E175.34335
G0 F9000 X116.959 Y121.3
G0 X116.776 Y120.635
;TYPE:SKIN
G1 F1800 X106.224 Y120.635 E175.88071
